static/images/mainmatter-logo-negative.svg

<svg height="31" viewBox="0 0 216 31" width="216" xmlns="http://www.w3.org/2000/svg"><path d="m5.20408012 0 11.09911198 17.1595315-2.8612392 4.4020931-7.92623761-12.27360859v21.71198399h-5.51571529v-31zm167.14300388 2.72460937v6.39830661h5.136055v3.88010372h-5.136055v10.5255645c0 2.3942615.787123 3.5090076 3.354785 3.5090076.621799 0 1.283831.0000005 1.78127-.0415564v3.8801024c-.787124.0823848-1.739572.1239423-2.609358.1239423l-.284592-.002341c-4.974514-.0828065-7.129441-2.3673488-7.129441-7.6339249v-10.3607945h-3.76883v-3.88010372h3.76883v-6.39830661zm-141.3723869-2.72460937v31h-5.5157127v-31zm125.8040269 2.72460937v6.39830661h5.135323v3.88010372h-5.135323v10.5255645c0 2.3942615.786392 3.5090076 3.354785 3.5090076.621067 0 1.283831.0000005 1.780538-.0415564v3.8801024c-.786392.0823848-1.739572.1239423-2.609358.1239423l-.284591-.002341c-4.974488-.0828065-7.128709-2.3673488-7.128709-7.6339249v-10.3607945h-3.76883v-3.88010372h3.76883v-6.39830661zm32.586628 5.90234375c6.171159 0 10.395726 4.66458138 10.395726 11.31004138l-.000383.2484909c-.001913.4453394-.013394 1.0243414-.082279 1.4028495h-15.821461c.455742 3.2611239 2.858076 5.449059 6.17116 5.449059 2.153615 0 3.934881-.9908056 5.34307-2.7245308l3.437446 2.4350898c-2.029255 2.7245293-5.094353 4.2519288-8.738819 4.2519288-6.75126 0-11.182849-4.6230245-11.182849-11.1860999 0-6.4806909 4.183601-11.18682868 10.478389-11.18682868zm-145.5043731 0c7.0819127 0 9.1945631 3.79771818 9.1945631 9.28760458v12.5895566h-4.8873324v-1.7745523c-1.532549 1.4858418-3.8105238 2.2703197-6.2955209 2.2703197-4.6803097 0-8.0760578-2.8892995-8.0760578-6.9764579 0-4.0864293 3.3957481-6.9757284 8.0760578-6.9757284 2.6510537 0 4.6386123.7844779 6.2955209 2.0639933v-2.022436c0-2.6829724-1.1594698-4.4582549-4.8873315-4.4582549-1.9465932 0-3.8514895.660536-5.466701 1.9816083l-2.816379-2.8069139c2.4849972-2.10555014 5.5910605-3.17873908 8.8631808-3.17873908zm92.9301761 0c7.081912 0 9.194563 3.79771818 9.194563 9.28760458v12.5895566h-4.887333v-1.7745523c-1.532549 1.4858418-3.810523 2.2703197-6.295521 2.2703197-4.679578 0-8.076057-2.8892995-8.076057-6.9764579 0-4.0864293 3.396479-6.9757284 8.076057-6.9757284 2.651054 0 4.638613.7844779 6.295521 2.0639933v-2.022436c0-2.6829724-1.159469-4.4582549-4.887331-4.4582549-1.946593 0-3.85149.660536-5.466701 1.9816083l-2.816379-2.8069139c2.484997-2.10555014 5.59106-3.17873908 8.863181-3.17873908zm-74.2353651.49609376v21.38212772h-4.8873329v-21.38212772zm152.0780101-.49609376c.455741 0 .952446.04155692 1.36649.08238477v4.04560211c-.414044-.0415569-1.117771-.082385-1.739568-.082385-2.525958 0-4.845625 1.2795155-6.087755 3.2195673v14.6119938h-4.887322v-21.38139627h4.887322v2.59985867c1.449152-1.94005175 3.602763-3.09562538 6.460833-3.09562538zm-98.173922 0c4.473286 0 6.958281 2.76608658 6.958281 7.88414858v13.9930144h-4.887329v-13.2085371c0-3.0132408-.952448-4.7061377-3.644467-4.7061377-1.822233 0-3.852219 1.1147459-4.969992 2.6421447.082662.6189793.082662 1.237959.082662 1.8984951v13.374035h-4.887331v-13.2085371c0-3.0132408-.869784-4.7061377-3.644465-4.7061377-1.8639306 0-3.7695578 1.032361-4.9290277 2.4358182v15.4788566h-4.8873304v-21.38139627h4.8873304v2.14637797c1.7395706-1.56895576 3.9758477-2.64214468 6.5442377-2.64214468 2.774681 0 4.803936 1.11474588 5.880743 3.17873928 1.863931-1.7337253 4.183603-3.17873928 7.496688-3.17873928zm-36.9976236 0c4.5142521 0 7.5793487 2.80691438 7.5793487 8.00809008v13.8690729h-4.8873305v-13.1677085c0-3.0132408-1.325526-4.7469663-4.1419043-4.7469663l-.2761453.0061532c-2.2927951.101928-4.3653646 1.4544797-5.4802397 2.8838748v15.0246468h-4.887331v-21.38139627h4.887331v2.47664617c1.6561767-1.65134053 4.1002082-2.97241288 7.2062711-2.97241288zm56.5834486 12.38281248c-2.651052 0-4.348926.9908044-4.348926 3.0132406 0 2.0231653 1.697874 3.0139697 4.348926 3.0139697l.310556-.005745c1.758737-.065148 3.490213-.6850475 4.742099-1.8934787v-2.2287629c-1.366492-1.2386876-3.106062-1.8992237-5.052655-1.8992237zm-92.9301756 0c-2.6510525 0-4.3489258.9908044-4.3489258 3.0132406 0 2.0231653 1.6978733 3.0139697 4.3489258 3.0139697l.3104474-.005745c1.7581927-.065148 3.4903216-.6850475 4.7422076-1.8934787v-2.2287629c-1.3664918-1.2386876-3.1060626-1.8992237-5.052655-1.8992237zm146.2497566-8.4199218-.246185.0043294c-2.926761.103749-4.860469 2.066521-5.303181 5.2792303h11.0168c-.248719-3.2603944-2.526695-5.2835597-5.467434-5.2835597zm-129.2527714-12.5898438c1.6978742 0 3.0234012 1.27951539 3.0234012 2.97241283l-.0050287.17968523c-.0901267 1.60224504-1.3811366 2.79199851-3.0183725 2.79199851-1.6986058 0-3.0234013-1.27951539-3.0234013-2.97168374 0-1.69289744 1.3247955-2.97241283 3.0234013-2.97241283z" fill="#fff" fill-rule="evenodd"/></svg>

<?xml version="1.0" encoding="UTF-8"?>
<svg width="216px" height="31px" viewBox="0 0 216 31" version="1.1" xmlns="http://www.w3.org/2000/svg" xmlns:xlink="http://www.w3.org/1999/xlink">
    <title>logo</title>
    <g id="Symbols" stroke="none" stroke-width="1" fill="none" fill-rule="evenodd">
        <g id="footer-/-desktop" transform="translate(-43.000000, -72.000000)" fill="#FFFFFF">
            <g id="logo" transform="translate(43.000000, 72.000000)">
                <path d="M5.20408012,0 L16.3031921,17.1595315 L13.4419529,21.5616246 L5.51571529,9.28801601 L5.51571529,31 L0,31 L0,0 L5.20408012,0 Z M172.347084,2.72460937 L172.347084,9.12291598 L177.483139,9.12291598 L177.483139,13.0030197 L172.347084,13.0030197 L172.347084,23.5285842 C172.347084,25.9228457 173.134207,27.0375918 175.701869,27.0375918 C176.323668,27.0375918 176.9857,27.0375923 177.483139,26.9960354 L177.483139,26.9960354 L177.483139,30.8761378 C176.696015,30.9585226 175.743567,31.0000801 174.873781,31.0000801 L174.873781,31.0000801 L174.589189,30.9977391 C169.614675,30.9149326 167.459748,28.6303903 167.459748,23.3638142 L167.459748,23.3638142 L167.459748,13.0030197 L163.690918,13.0030197 L163.690918,9.12291598 L167.459748,9.12291598 L167.459748,2.72460937 L172.347084,2.72460937 Z M30.9746971,0 L30.9746971,31 L25.4589844,31 L25.4589844,0 L30.9746971,0 Z M156.778724,2.72460937 L156.778724,9.12291598 L161.914047,9.12291598 L161.914047,13.0030197 L156.778724,13.0030197 L156.778724,23.5285842 C156.778724,25.9228457 157.565116,27.0375918 160.133509,27.0375918 C160.754576,27.0375918 161.41734,27.0375923 161.914047,26.9960354 L161.914047,26.9960354 L161.914047,30.8761378 C161.127655,30.9585226 160.174475,31.0000801 159.304689,31.0000801 L159.304689,31.0000801 L159.020098,30.9977391 C154.04561,30.9149326 151.891389,28.6303903 151.891389,23.3638142 L151.891389,23.3638142 L151.891389,13.0030197 L148.122559,13.0030197 L148.122559,9.12291598 L151.891389,9.12291598 L151.891389,2.72460937 L156.778724,2.72460937 Z M189.365352,8.62695312 C195.536511,8.62695312 199.761078,13.2915345 199.761078,19.9369945 L199.761078,19.9369945 L199.760695,20.1854854 C199.758782,20.6308248 199.747301,21.2098268 199.678416,21.5883349 L199.678416,21.5883349 L183.856955,21.5883349 C184.312697,24.8494588 186.715031,27.0373939 190.028115,27.0373939 C192.18173,27.0373939 193.962996,26.0465883 195.371185,24.3128631 L195.371185,24.3128631 L198.808631,26.7479529 C196.779376,29.4724822 193.714278,30.9998817 190.069812,30.9998817 C183.318552,30.9998817 178.886963,26.3768572 178.886963,19.8137818 C178.886963,13.3330909 183.070564,8.62695312 189.365352,8.62695312 Z M43.8609789,8.62695312 C50.9428916,8.62695312 53.055542,12.4246713 53.055542,17.9145577 L53.055542,17.9145577 L53.055542,30.5041143 L48.1682096,30.5041143 L48.1682096,28.729562 C46.6356606,30.2154038 44.3576858,30.9998817 41.8726887,30.9998817 C37.192379,30.9998817 33.7966309,28.1105822 33.7966309,24.0234238 C33.7966309,19.9369945 37.192379,17.0476954 41.8726887,17.0476954 C44.5237424,17.0476954 46.511301,17.8321733 48.1682096,19.1116887 L48.1682096,19.1116887 L48.1682096,17.0892527 C48.1682096,14.4062803 47.0087398,12.6309978 43.2808781,12.6309978 C41.3342849,12.6309978 39.4293886,13.2915338 37.8141771,14.6126061 L37.8141771,14.6126061 L34.9977981,11.8056922 C37.4827953,9.70014206 40.5888586,8.62695312 43.8609789,8.62695312 Z M136.791155,8.62695312 C143.873067,8.62695312 145.985718,12.4246713 145.985718,17.9145577 L145.985718,17.9145577 L145.985718,30.5041143 L141.098385,30.5041143 L141.098385,28.729562 C139.565836,30.2154038 137.287862,30.9998817 134.802864,30.9998817 C130.123286,30.9998817 126.726807,28.1105822 126.726807,24.0234238 C126.726807,19.9369945 130.123286,17.0476954 134.802864,17.0476954 C137.453918,17.0476954 139.441477,17.8321733 141.098385,19.1116887 L141.098385,19.1116887 L141.098385,17.0892527 C141.098385,14.4062803 139.938916,12.6309978 136.211054,12.6309978 C134.264461,12.6309978 132.359564,13.2915338 130.744353,14.6126061 L130.744353,14.6126061 L127.927974,11.8056922 C130.412971,9.70014206 133.519034,8.62695312 136.791155,8.62695312 Z M62.5557899,9.12304688 L62.5557899,30.5051746 L57.668457,30.5051746 L57.668457,9.12304688 L62.5557899,9.12304688 Z M214.6338,8.62695312 C215.089541,8.62695312 215.586246,8.66851004 216.00029,8.70933789 L216.00029,8.70933789 L216.00029,12.75494 C215.586246,12.7133831 214.882519,12.672555 214.260722,12.672555 C211.734764,12.672555 209.415097,13.9520705 208.172967,15.8921223 L208.172967,15.8921223 L208.172967,30.5041161 L203.285645,30.5041161 L203.285645,9.12271983 L208.172967,9.12271983 L208.172967,11.7225785 C209.622119,9.78252675 211.77573,8.62695312 214.6338,8.62695312 Z M116.459878,8.62695312 C120.933164,8.62695312 123.418159,11.3930397 123.418159,16.5111017 L123.418159,16.5111017 L123.418159,30.5041161 L118.53083,30.5041161 L118.53083,17.295579 C118.53083,14.2823382 117.578382,12.5894413 114.886363,12.5894413 C113.06413,12.5894413 111.034144,13.7041872 109.916371,15.231586 C109.999033,15.8505653 109.999033,16.469545 109.999033,17.1300811 L109.999033,17.1300811 L109.999033,30.5041161 L105.111702,30.5041161 L105.111702,17.295579 C105.111702,14.2823382 104.241918,12.5894413 101.467237,12.5894413 C99.6033064,12.5894413 97.6976792,13.6218023 96.5382093,15.0252595 L96.5382093,15.0252595 L96.5382093,30.5041161 L91.6508789,30.5041161 L91.6508789,9.12271983 L96.5382093,9.12271983 L96.5382093,11.2690978 C98.2777799,9.70014204 100.514057,8.62695312 103.082447,8.62695312 C105.857128,8.62695312 107.886383,9.741699 108.96319,11.8056924 C110.827121,10.0719671 113.146793,8.62695312 116.459878,8.62695312 Z M79.4622544,8.62695312 C83.9765065,8.62695312 87.0416031,11.4338675 87.0416031,16.6350432 L87.0416031,16.6350432 L87.0416031,30.5041161 L82.1542726,30.5041161 L82.1542726,17.3364076 C82.1542726,14.3231668 80.8287466,12.5894413 78.0123683,12.5894413 L78.0123683,12.5894413 L77.736223,12.5955945 C75.4434279,12.6975225 73.3708584,14.0500742 72.2559833,15.4794693 L72.2559833,15.4794693 L72.2559833,30.5041161 L67.3686523,30.5041161 L67.3686523,9.12271983 L72.2559833,9.12271983 L72.2559833,11.599366 C73.91216,9.94802547 76.3561915,8.62695312 79.4622544,8.62695312 Z M136.045703,21.0097656 C133.394651,21.0097656 131.696777,22.00057 131.696777,24.0230062 C131.696777,26.0461715 133.394651,27.0369759 136.045703,27.0369759 L136.045703,27.0369759 L136.356259,27.0312309 C138.114996,26.9660829 139.846472,26.3461834 141.098358,25.1377522 L141.098358,25.1377522 L141.098358,22.9089893 C139.731866,21.6703017 137.992296,21.0097656 136.045703,21.0097656 Z M43.1155274,21.0097656 C40.4644749,21.0097656 38.7666016,22.00057 38.7666016,24.0230062 C38.7666016,26.0461715 40.4644749,27.0369759 43.1155274,27.0369759 L43.1155274,27.0369759 L43.4259748,27.0312309 C45.1841675,26.9660829 46.9162964,26.3461834 48.1681824,25.1377522 L48.1681824,25.1377522 L48.1681824,22.9089893 C46.8016906,21.6703017 45.0621198,21.0097656 43.1155274,21.0097656 Z M189.365284,12.5898438 L189.119099,12.5941732 C186.192338,12.6979222 184.25863,14.6606942 183.815918,17.8734035 L183.815918,17.8734035 L194.832718,17.8734035 C194.583999,14.6130091 192.306023,12.5898438 189.365284,12.5898438 L189.365284,12.5898438 Z M60.1125126,0 C61.8103868,0 63.1359138,1.27951539 63.1359138,2.97241283 L63.1359138,2.97241283 L63.1308851,3.15209806 C63.0407584,4.7543431 61.7497485,5.94409657 60.1125126,5.94409657 C58.4139068,5.94409657 57.0891113,4.66458118 57.0891113,2.97241283 C57.0891113,1.27951539 58.4139068,0 60.1125126,0 Z"></path>
            </g>
        </g>
    </g>
</svg>
